X: 24
T: Missa Princesse d'amourettes &mdash; Agnus Dei
C: Gaspar van Weerbeke
%%abc-version 2.0
%%abcx-abcm2ps-target-version 5.9.1 (29 Sep 2008)
%%abc-creator hum2abc beta
%%abcx-conversion-date 2022/03/06 13:05:54
%%abc-copyright Copyright 2014, Pavanello, Agnese
%%abc-edited-by Mair-Gruber, Roland
%%humdrum-veritas 366461918
%%humdrum-veritas-data 2168127820
%%linebreak <none>
%%barnumbers 0
L: 1/4
M: 3/2
N: Derived from Gas0103e-Missa_Princesse_damourettes-Agnus.krn
%%staves [1 2 3 4]
V: 1 clef=treble
V: 2 clef=treble-8
V: 3 clef=treble-8
V: 4 clef=bass
K: C
[V:1] G6- | 
[V:2] G4G3/A/ | 
[V:3] z6 | 
[V:4] z6 | 
[V:1] G2E>F G/A/G- | 
[V:2] B2c3B | 
[V:3] z6 | 
[V:4] z6 | 
[V:1] GEF>G A/_B/A- | 
[V:2] c2d3c | 
[V:3] z6 | 
[V:4] z6 | 
[V:1] AGFE>DD- | 
[V:2] B2AGAF | 
[V:3] z6 | 
[V:4] z6 | 
[V:1] DCB,D2B, | 
[V:2] E2D>EFG- | 
[V:3] z6 | 
[V:4] z6 | 
[V:1] A,2zFEG- | 
[V:2] GcBdc3/B/ | 
[V:3] z6 | 
[V:4] z6 | 
[V:1] GED2zc | 
[V:2] Gc2fea | 
[V:3] z6 | 
[V:4] z6 | 
[V:1] Bd2BA2 | 
[V:2] g>fdg2f | 
[V:3] z6 | 
[V:4] z6 | 
[V:1] G>ABc2B | 
[V:2] eg2ed2 | 
[V:3] G6 | 
[V:4] G,,6 | 
[V:1] c2zGAB | 
[V:2] c2GEF2 | 
[V:3] G>ABc2B | 
[V:4] C,2z2D,2 | 
[V:1] E>FGAD3/E/ | 
[V:2] G2z2z2 | 
[V:3] c2>A2B2 | 
[V:4] C,2E,F,G,2 | 
[V:1] F/G<AG/EF2 | 
[V:2] d2c2zA | 
[V:3] A6 | 
[V:4] D,F,>E,C,D,2 | 
[V:1] G2DE2C | 
[V:2] B2G2A3/G/ | 
[V:3] z6 | 
[V:4] G,,4z2 | 
[V:1] D2CB,A,2 | 
[V:2] FE2DF2 | 
[V:3] z2z2zA | 
[V:4] z2z2zF, | 
[V:1] G,G>FEDC- | 
[V:2] z2zcde- | 
[V:3] B2G3A | 
[V:4] G,E,>D,C,B,,A,, | 
[V:1] C/B,/A,zcBA- | 
[V:2] e/d/d2cd2 | 
[V:3] GFE2D2 | 
[V:4] C,D,A,,2z2 | 
[V:1] AFG2F2- | 
[V:2] zABcd3/c/ | 
[V:3] z6 | 
[V:4] F,2E,2D,2- | 
[V:1] FA2FE2 | 
[V:2] ADzDA2 | 
[V:3] A>Bcd2^c | 
[V:4] D,2A,,B,,A,,2 | 
[V:1] z6 | 
[V:2] F>G A/B<AG//F//G | 
[V:3] d4zd | 
[V:4] D,2zD,C,B,, | 
[V:1] zD>CA,B,G, | 
[V:2] CG2FG3/A/ | 
[V:3] cBA2d2- | 
[V:4] A,,G,,D,2zG,,- | 
[V:1] GEDG2^F | 
[V:2] Bcde2d | 
[V:3] dcBGA2 | 
[V:4] G,,A,,B,,C,2D, | 
[V:1] G>FDCG2- | 
[V:2] B>ABcd2 | 
[V:3] G2z2G2 | 
[V:4] E,>F,G,A,B,2 | 
[V:1] GA2G/F<EF/ | 
[V:2] e/d/c/B/A2zG- | 
[V:3] c4c2 | 
[V:4] E,F,2E,/D,/C,2 | 
[V:1] G/A<BA/A2^G | 
[V:2] G2>A2E2 | 
[V:3] d2>c2B2 | 
[V:4] G,,2z2z2 | 
[V:1] A2zDE3/F/ | 
[V:2] F2G>FGE- | 
[V:3] A2B2G2- | 
[V:4] zD,B,,G,,C,3/D,/ | 
[V:1] GEFA2G | 
[V:2] Ee>dd2c | 
[V:3] GA2FE2 | 
[V:4] E,A,,D,2z2 | 
[V:1] FDE2D3/C/ | 
[V:2] dBc2zd- | 
[V:3] D2zAB3/A/ | 
[V:4] B,,2A,,2zG,,- | 
[V:1] B,A,G,G2^F | 
[V:2] dfecd2 | 
[V:3] GFG2A2 | 
[V:4] G,,D,E,2D,2 | 
[V:1] G6 ||  
[V:2] [B6d6] ||  
[V:3] G6 ||  
[V:4] G,,6 ||  
[V:1] [M:2/2]G2G2 | 
[V:2] [M:2/2]z4 | 
[V:3] [M:2/2]z4 | 
[V:4] [M:2/2]z4 | 
[V:1] FG2F/E/ | 
[V:2] z4 | 
[V:3] z4 | 
[V:4] z2G,2 | 
[V:1] D2zD | 
[V:2] z4 | 
[V:3] z4 | 
[V:4] G,2F,G,- | 
[V:1] EGFA- | 
[V:2] z4 | 
[V:3] z4 | 
[V:4] G,F,/E,/D,2 | 
[V:1] AG/F/GE | 
[V:2] z4 | 
[V:3] z4 | 
[V:4] zD,E,G, | 
[V:1] DF2E/D/ | 
[V:2] z4 | 
[V:3] z4 | 
[V:4] F,A,2G,/F,/ | 
[V:1] ECD2 | 
[V:2] z4 | 
[V:3] z4 | 
[V:4] G,E,D,F,- | 
[V:1] zFGA- | 
[V:2] z4 | 
[V:3] z4 | 
[V:4] F,E,/D,/E,C, | 
[V:1] A_BAG/F/ | 
[V:2] z4 | 
[V:3] z4 | 
[V:4] D,2zF, | 
[V:1] EF2G | 
[V:2] z4 | 
[V:3] z4 | 
[V:4] G,A,2_B, | 
[V:1] FE/D/^C2 | 
[V:2] z4 | 
[V:3] z4 | 
[V:4] A,G,/F,/E,2 | 
[V:1] D2z2 | 
[V:2] zd2B | 
[V:3] z4 | 
[V:4] D,>E,F,G, | 
[V:1] z4 | 
[V:2] cd2e | 
[V:3] z4 | 
[V:4] A,B,2C | 
[V:1] z4 | 
[V:2] dc/B/AB- | 
[V:3] z4 | 
[V:4] B,A,/G,/F,G,- | 
[V:1] z4 | 
[V:2] BcBA/G/ | 
[V:3] z4 | 
[V:4] G,A,G,F,/E,/ | 
[V:1] z4 | 
[V:2] F2F2 | 
[V:3] z4 | 
[V:4] D,C,/B,,/A,,2 | 
[V:1] z4 | 
[V:2] z2G3/A/ | 
[V:3] z4 | 
[V:4] G,,>A,, B,,/C,/B,, | 
[V:1] z4 | 
[V:2] B/c/B2A/G/ | 
[V:3] z4 | 
[V:4] G,,G,2F,/E,/ | 
[V:1] z2G3/A/ | 
[V:2] c2B3/c/ | 
[V:3] z4 | 
[V:4] A,2G,2 | 
[V:1] B/c/B2A/G/ | 
[V:2] d2G3/F/ | 
[V:3] z4 | 
[V:4] z4 | 
[V:1] c2Bc | 
[V:2] E/D/EDE | 
[V:3] z4 | 
[V:4] z4 | 
[V:1] d2G3/F/ | 
[V:2] DG>AB | 
[V:3] z4 | 
[V:4] z4 | 
[V:1] E/D/EDE | 
[V:2] c/B/cBc | 
[V:3] z4 | 
[V:4] z4 | 
[V:1] DG>AB | 
[V:2] dBcd | 
[V:3] z4 | 
[V:4] z4 | 
[V:1] c/B/cd2 | 
[V:2] e2d3/c/ | 
[V:3] z4 | 
[V:4] z4 | 
[V:1] d/c/B/A<BA/ | 
[V:2] B/A/dGD | 
[V:3] z4 | 
[V:4] z4 | 
[V:1] B/c/B2A/G/ | 
[V:2] G>ABc | 
[V:3] z4 | 
[V:4] z4 | 
[V:1] ^F>EG2 | 
[V:2] A2G2 | 
[V:3] z4 | 
[V:4] z4 | 
[V:1] z4 | 
[V:2] zg>fe/d/ | 
[V:3] z4 | 
[V:4] G,>F, E,/D,/G, | 
[V:1] z4 | 
[V:2] gc2d- | 
[V:3] z4 | 
[V:4] C,2E,F, | 
[V:1] z4 | 
[V:2] d/c/B/A<de/ | 
[V:3] z4 | 
[V:4] D,>C, B,,/A,,/D,- | 
[V:1] z4 | 
[V:2] fe2c- | 
[V:3] z4 | 
[V:4] D,G,C,E, | 
[V:1] z2zc- | 
[V:2] cBc2 | 
[V:3] z4 | 
[V:4] D,2C,3/D,/ | 
[V:1] c/B/A/G<cB/ | 
[V:2] zc>BA/G/ | 
[V:3] z4 | 
[V:4] E,F,>G,A, | 
[V:1] GcBA- | 
[V:2] c>AGA | 
[V:3] z4 | 
[V:4] E,F,G,F, | 
[V:1] AGA2 | 
[V:2] _B2A3/=B/ | 
[V:3] z4 | 
[V:4] G,2D,2 | 
[V:1] zA2G/F/ | 
[V:2] cdc3/A/ | 
[V:3] z4 | 
[V:4] z4 | 
[V:1] GADF- | 
[V:2] Bcd2 | 
[V:3] z4 | 
[V:4] z2zD,- | 
[V:1] FE/D/E^F | 
[V:2] A2z2 | 
[V:3] z4 | 
[V:4] D,C,/B,,/C,D, | 
[V:1] G2z2 | 
[V:2] zG2F/E/ | 
[V:3] z4 | 
[V:4] G,,2z2 | 
[V:1] zG2F/E/ | 
[V:2] FGCG | 
[V:3] z4 | 
[V:4] z4 | 
[V:1] FGC2 | 
[V:2] ABce- | 
[V:3] z4 | 
[V:4] z2zC,- | 
[V:1] z4 | 
[V:2] ed/c/de | 
[V:3] z4 | 
[V:4] C,B,,/A,,/B,,C, | 
[V:1] zc2B/A/ | 
[V:2] c2zc | 
[V:3] z4 | 
[V:4] F,>G,A,2 | 
[V:1] BcA2- | 
[V:2] def2- | 
[V:3] z4 | 
[V:4] G,2F,3/E,/ | 
[V:1] Ac>BA/G/ | 
[V:2] fefg- | 
[V:3] z4 | 
[V:4] D,C,A,,B,, | 
[V:1] A2G3/F/ | 
[V:2] gfgG | 
[V:3] z4 | 
[V:4] C,D,E,3/D,/ | 
[V:1] ED2B, | 
[V:2] AB2A/G/ | 
[V:3] z4 | 
[V:4] C,B,,G,,2 | 
[V:1] A,2zG,- | 
[V:2] ^F2G/A/B/c/ | 
[V:3] z4 | 
[V:4] D,2z2 | 
[V:1] G,/A,/B,/C/ D/E/F/G/ | 
[V:2] def3/e/ | 
[V:3] z4 | 
[V:4] z4 | 
[V:1] ABcd- | 
[V:2] fgef | 
[V:3] z4 | 
[V:4] z4 | 
[V:1] d/c/B/A<BA/ | 
[V:2] dg2G- | 
[V:3] z4 | 
[V:4] z4 | 
[V:1] G/F<GF/E/D/ | 
[V:2] G/A/Bc3/B/ | 
[V:3] z4 | 
[V:4] z4 | 
[V:1] ED2G- | 
[V:2] cdBc | 
[V:3] z4 | 
[V:4] C,G,2C, | 
[V:1] G^FG2- | 
[V:2] AdG2- | 
[V:3] z4 | 
[V:4] D,2E,3/D,/ | 
[V:1] G4 ||  
[V:2] G4 ||  
[V:3] z4 ||  
[V:4] B,,C,G,,2 ||  
[V:1] [M:2/2]z4 | 
[V:2] [M:2/2]z4 | 
[V:3] [M:2/2]G3F/E/ | 
[V:4] [M:2/2]G,,4- | 
[V:1] z4 | 
[V:2] z4 | 
[V:3] DEDG- | 
[V:4] G,,4- | 
[V:1] z4 | 
[V:2] z4 | 
[V:3] G/A/B/c/ d/e/d- | 
[V:4] G,,4- | 
[V:1] z4 | 
[V:2] zc2B | 
[V:3] dcd2 | 
[V:4] G,,4 | 
[V:1] z4 | 
[V:2] ce>fg/a/ | 
[V:3] G2z2 | 
[V:4] C,4- | 
[V:1] z4 | 
[V:2] g>fed/c/ | 
[V:3] z4 | 
[V:4] C,4 | 
[V:1] z4 | 
[V:2] Bd>cB/A/ | 
[V:3] z4 | 
[V:4] D,4- | 
[V:1] zC2B, | 
[V:2] Bcd2 | 
[V:3] z4 | 
[V:4] D,4 | 
[V:1] C>D E/F/G | 
[V:2] G2z2 | 
[V:3] z4 | 
[V:4] C,4- | 
[V:1] AG2F/E/ | 
[V:2] z4 | 
[V:3] z4 | 
[V:4] C,4 | 
[V:1] DG>AB- | 
[V:2] z4 | 
[V:3] z4 | 
[V:4] B,,4- | 
[V:1] BA/G/ A/G/F/E/ | 
[V:2] z4 | 
[V:3] z4 | 
[V:4] B,,4 | 
[V:1] FGA2 | 
[V:2] z4 | 
[V:3] zG2^F | 
[V:4] A,,4 | 
[V:1] D2z2 | 
[V:2] z4 | 
[V:3] G>A B/c/d- | 
[V:4] B,,4 | 
[V:1] z4 | 
[V:2] z4 | 
[V:3] d/c/B/A/BG- | 
[V:4] G,,4- | 
[V:1] z4 | 
[V:2] zc2B | 
[V:3] GF/E/D2 | 
[V:4] G,,4 | 
[V:1] z4 | 
[V:2] c>d e/d/c/B/ | 
[V:3] C4 | 
[V:4] z4 | 
[V:1] z4 | 
[V:2] A2Dd- | 
[V:3] F4- | 
[V:4] z4 | 
[V:1] z4 | 
[V:2] d/c/B/A/B2 | 
[V:3] F2G2- | 
[V:4] z4 | 
[V:1] z4 | 
[V:2] Eefe/d/ | 
[V:3] G2F2 | 
[V:4] z4 | 
[V:1] zD2^C | 
[V:2] cde2 | 
[V:3] E4 | 
[V:4] z4 | 
[V:1] D/E/F/G/AB | 
[V:2] A2z2 | 
[V:3] D4 | 
[V:4] z4 | 
[V:1] GcBc- | 
[V:2] e4 | 
[V:3] z4 | 
[V:4] z4 | 
[V:1] c/B/A/G/FA- | 
[V:2] c2d2 | 
[V:3] z4 | 
[V:4] z4 | 
[V:1] A/G/EDG- | 
[V:2] c2B2 | 
[V:3] z4 | 
[V:4] z4 | 
[V:1] G^F/E/F2 | 
[V:2] A4 | 
[V:3] z2c2 | 
[V:4] z4 | 
[V:1] G4 | 
[V:2] G4 | 
[V:3] B>GBc- | 
[V:4] E,4 | 
[V:1] z4 | 
[V:2] z4 | 
[V:3] c/B/A/G/FA- | 
[V:4] C,2D,2 | 
[V:1] z4 | 
[V:2] z4 | 
[V:3] A/G/EDG- | 
[V:4] C,2B,,2 | 
[V:1] A4 | 
[V:2] c4 | 
[V:3] G^F/E/^F2 | 
[V:4] A,,4 | 
[V:1] D2G2- | 
[V:2] B2G2 | 
[V:3] G4 | 
[V:4] G,,4 | 
[V:1] G2^F2 | 
[V:2] A4 | 
[V:3] z4 | 
[V:4] D,4 | 
[V:1] G2z2 | 
[V:2] G2d2 | 
[V:3] d2B2 | 
[V:4] G,,4 | 
[V:1] c4 | 
[V:2] e2f2 | 
[V:3] A4 | 
[V:4] z4 | 
[V:1] B2G2 | 
[V:2] g>fd2 | 
[V:3] G4 | 
[V:4] z2G,2- | 
[V:1] A4 | 
[V:2] z4 | 
[V:3] D2zA | 
[V:4] G,2F,2 | 
[V:1] G2F2 | 
[V:2] e2fd- | 
[V:3] Bcd2 | 
[V:4] E,2D,2 | 
[V:1] G2zC- | 
[V:2] dgfe- | 
[V:3] B2A2- | 
[V:4] G,2A,2 | 
[V:1] CFG3/E/ | 
[V:2] e/d/dBc | 
[V:3] A2G2 | 
[V:4] F,D,E,2 | 
[V:1] F2F2 | 
[V:2] d2z2 | 
[V:3] A4 | 
[V:4] D,4 | 
[V:1] G2E3/F/ | 
[V:2] G2c2- | 
[V:3] z4 | 
[V:4] z4 | 
[V:1] GABA- | 
[V:2] ccdc | 
[V:3] z4 | 
[V:4] z4 | 
[V:1] AGF3/D/ | 
[V:2] B2A2 | 
[V:3] z4 | 
[V:4] z4 | 
[V:1] E2A,A- | 
[V:2] c3c | 
[V:3] z4 | 
[V:4] C,2F,2- | 
[V:1] A/G/FED- | 
[V:2] d>cBA- | 
[V:3] z4 | 
[V:4] F,F,G,F, | 
[V:1] D^CD2 | 
[V:2] AGA2 | 
[V:3] z4 | 
[V:4] E,2D,2 | 
[V:1] z4 | 
[V:2] z4 | 
[V:3] B2G3/A/ | 
[V:4] z2E,2 | 
[V:1] z4 | 
[V:2] z4 | 
[V:3] GFED | 
[V:4] C,3D, | 
[V:1] z4 | 
[V:2] e2c2 | 
[V:3] EG2^F | 
[V:4] C,B,,A,,2 | 
[V:1] B2G2- | 
[V:2] Bd2c | 
[V:3] G2z2 | 
[V:4] G,,2z2 | 
[V:1] GAGF | 
[V:2] BABd- | 
[V:3] z4 | 
[V:4] z4 | 
[V:1] E2D3/C/ | 
[V:2] d^cd2 | 
[V:3] zAB3/A/ | 
[V:4] z4 | 
[V:1] B,A,G,B, | 
[V:2] z4 | 
[V:3] GFG2 | 
[V:4] zD,E,3/D,/ | 
[V:1] CDE/D/C/B,/ | 
[V:2] z2ze- | 
[V:3] ABAG- | 
[V:4] C,B,,C,2 | 
[V:1] A,2G,2 | 
[V:2] edcB | 
[V:3] GFG2 | 
[V:4] zD,E,3/D,/ | 
[V:1] A,B,A,G,- | 
[V:2] cd2c- | 
[V:3] z4 | 
[V:4] C,B,,C,2 | 
[V:1] G,^F,G,2 | 
[V:2] cBc2 | 
[V:3] z2G2 | 
[V:4] D,2C,2 | 
[V:1] z4 | 
[V:2] G3A- | 
[V:3] c3c | 
[V:4] C,>D,E,F, | 
[V:1] z2G2 | 
[V:2] A2BG | 
[V:3] dcB2 | 
[V:4] D,F,G,E, | 
[V:1] c3c | 
[V:2] A>B c/d/e/f/ | 
[V:3] A2z2 | 
[V:4] F,>G,A,2 | 
[V:1] d>cB2 | 
[V:2] g4 | 
[V:3] B2G2 | 
[V:4] G,2zG, | 
[V:1] A2B2 | 
[V:2] f2d2 | 
[V:3] zAG3/F/ | 
[V:4] D,>C, B,,/A,,/G,, | 
[V:1] G2A2 | 
[V:2] e2zA- | 
[V:3] E2D2 | 
[V:4] C,2zD,- | 
[V:1] FGEF | 
[V:2] AG2A | 
[V:3] dBcd- | 
[V:4] D,E,2D, | 
[V:1] DG2c | 
[V:2] B/c/def | 
[V:3] dBA2 | 
[V:4] z4 | 
[V:1] Bd2G | 
[V:2] g>fde | 
[V:3] G2Bc | 
[V:4] z2G,E, | 
[V:1] FA2E | 
[V:2] f>ec2 | 
[V:3] d>cAc | 
[V:4] D,F,>E,C, | 
[V:1] DG2^F | 
[V:2] dcd2 | 
[V:3] BGA2 | 
[V:4] G,E,D,2 | 
[V:1] GD2C/B,/ | 
[V:2] d2zd | 
[V:3] G2z2 | 
[V:4] G,,/A,,/B,,/C,/D,E, | 
[V:1] A,G,zG, | 
[V:2] cBAd | 
[V:3] z4 | 
[V:4] F,G,A,B, | 
[V:1] A,B,C3/B,//A,// | 
[V:2] cBA2 | 
[V:3] z4 | 
[V:4] A,G,2^F, | 
[V:1] G,/A,/B,/C/DE | 
[V:2] zG2F/E/ | 
[V:3] z4 | 
[V:4] G,2zG, | 
[V:1] FGAB | 
[V:2] DcdB | 
[V:3] z4 | 
[V:4] F,E,D,G, | 
[V:1] AG2^F | 
[V:2] cGA2 | 
[V:3] z4 | 
[V:4] F,E,D,2 | 
[V:1] G4 |]  
[V:2] G4 |]  
[V:3] G4 |]  
[V:4] G,,4 |]  


